X:1
T:Welcome Hour of Prayer
T:William Howard Doane
T:Welcome Hour of Prayer
T:Public Domain
T:Public Domain
C:William Howard Doane
Z:Public Domain
%%score ( 1 2 ) ( 3 4 )
L:1/8
M:4/4
K:Ab
V:1 treble 
V:2 treble 
V:3 bass 
V:4 bass 
V:1
 [Ec]>[Fd] | [Ec]2 [DB]2 [CA]2 [EB]>[EA] | [EG]2 [DF]2 [CE]2 [CE]>[DF] | [CE]2 [EA]2 [Ec]2 [EA]2 | %4
w: 1.~We have|met once more, in the|Mas- ter’s name; Let us|all to Him draw|
w: 2.~O the|joy He gives, and the|love we feel, When our|tune- ful songs we|
w: 3.~There’s a|voice that comes, and it|sweet- ly sings Of a|land where toil is|
 [EB]6 [Ec]>[Fd] | [Ec]2 [DB]2 [CA]2 [EB]>[EA] | [EG]2 [DF]2 [FA]2 [Fd]>[Fd] | %7
w: near; With a|trust- ing faith and a|stead- fast hope, For we|
w: raise, When our|prayers a- rise to His|throne on high, And our|
w: o’er; With the|loved ones there, in the|vale so fair, We shall|
 [Ec]3 [EB] [EA]2 (G<B) | [CA]6 ||"^Refrain" c>c | (z2 E>E E2) d>d | z2 E>E E2 [Ec]>[Ed] | %12
w: know our Lord is *|Wel-|come hour,|* * * bless- èd|* * * Hap- py|
w: hearts are filled with *|||||
w: dwell, and part no *|||||
 [Ae]2 [Ec]2 [EA]2 (Bc) | (E2 E2 E2) [Ec]>[Fd] | [Ec]2 [DB]2 [CA]2 [EB]>[EA] | %15
w: * from toil and *|When * * we meet|now in the Mas- ter’s|
w: |||
w: |||
 [EG]2 [DF]2 [FA]2 [Fd]>[Fd] | [Ec]3 [EB] [EA]2 (G<B) | [CA]6 |] %18
w: name, At the wel- come|hour of prayer. * *||
w: |||
w: |||
V:2
 x2 | x8 | x8 | x8 | x8 | x8 | x8 | x6 D2 | x6 || x2 | B6 x2 | c6 x2 | x6 E2 | B6 x2 | x8 | x8 | %16
w: |||||||here.|||hour,|rest|care,|as|||
w: |||||||praise.|||||||||
w: |||||||more.|||||||||
 x6 D2 | x6 |] %18
w: ||
w: ||
w: ||
V:3
 [A,,A,]>[A,,A,] | [A,,A,]2 [E,G,]2 [F,A,]2 [C,A,]>[C,A,] | %2
w: ~ ~|~ ~ ~ ~ ~|
 [D,A,]2 [D,A,]2 [A,,A,]2 [A,,A,]>[A,,A,] | [A,,A,]2 [C,A,]2 [A,,A,]2 [C,A,]2 | %4
w: ~ ~ ~ ~ ~|~ ~ ~ ~|
 [E,G,]6 [A,,A,]>[A,,A,] | [A,,A,]2 [E,G,]2 [F,A,]2 [C,A,]>[C,A,] | %6
w: ~ ~ ~|~ ~ ~ ~ ~|
 [D,A,]2 [D,A,]2 [D,A,]2 [D,A,]>[D,A,] | [E,A,]3 [E,D] [E,C]2 (B,<G,) | [A,,A,]6 || z2 | %10
w: ~ ~ ~ ~ ~|~ ~ ~ ~ *|Wel-||
 z2 [E,G,]>[E,G,] [E,G,]2 z2 | z2 [A,,A,]>[A,,A,] [A,,A,]2 A,>[A,B,] | %12
w: come hour, bless-|èd hour, ~ ~ ~|
 [A,C]2 A,2 [C,A,]2 ([B,,G,][A,,A,]) | [E,G,]2 [E,G,]2 [E,G,]2 A,>A, | %14
w: ~ ~ ~ and *||
 A,2 [E,G,]2 [F,A,]2 [C,A,]>[C,A,] | [D,A,]2 [D,A,]2 [D,A,]2 [D,A,]>[D,A,] | %16
w: ||
 [E,A,]3 [E,D] [E,C]2 (B,<G,) | [A,,A,]6 |] %18
w: ||
V:4
 x2 | x8 | x8 | x8 | x8 | x8 | x8 | x6 E,2 | x6 || x2 | x8 | x6 A,3/2 x/ | x2 A,2 x4 | x6 A,>A, | %14
w: |||||||~||||~|care,||
 A,2 x6 | x8 | x6 E,2 | x6 |] %18
w: ||||

